X: 14220
T: Fun Surprise, The
R: reel
M: 4/4
K: Emajor
|:GEBE GEBA|CFCA GEEA|FFEA AGCG|FE_EB FFGF|
GEBE GEBA|CFCA GEEA|FFEA AGCG|1 FE_EB BBcB:|2 FE_EB FFGA||
BEEE BBcB|FGAB GECG|AECA GECA|Befg fedf|
BEEE BBcB|FGAB GECG|AECA GECA|FGFG FE_EB|
BEEE BBcB|FGAB GECG|AECA GECA|Befg fedf|
BEEE BBcB|FGAB GECG|ABcd eBGE|FE_EB FFGF|

